packages/kaspersky-hexa-ui-icons/src/iconsSVGs/28x20/FlagWw.svg

<svg width="28" height="20" viewBox="0 0 28 20" fill="none" xmlns="http://www.w3.org/2000/svg">
<g clip-path="url(#clip0_5138_2167)">
<rect width="28" height="20" rx="2" fill="white"/>
<mask id="mask0_5138_2167" style="mask-type:luminance" maskUnits="userSpaceOnUse" x="0" y="0" width="28" height="20">
<rect width="28" height="20" rx="2" fill="white"/>
</mask>
<g mask="url(#mask0_5138_2167)">
<rect width="28" height="20" fill="#19BFBF"/>
<path fill-rule="evenodd" clip-rule="evenodd" d="M21.3333 10C21.3333 14.0501 18.0501 17.3334 14 17.3334C9.9499 17.3334 6.66666 14.0501 6.66666 10C6.66666 5.94993 9.9499 2.66669 14 2.66669C18.0501 2.66669 21.3333 5.94993 21.3333 10ZM19.9634 10.6667C19.7158 12.9059 18.2361 14.7737 16.2173 15.577C16.8674 14.253 17.2472 12.5281 17.3203 10.6667H19.9634ZM15.9856 10.6667C15.8883 12.9157 15.3011 14.9034 14.3855 15.9878C14.258 15.9959 14.1295 16 14 16C13.8705 16 13.7419 15.9959 13.6145 15.9878C12.6989 14.9034 12.1117 12.9157 12.0143 10.6667H15.9856ZM10.6797 10.6667C10.7528 12.5281 11.1326 14.253 11.7827 15.577C9.76385 14.7737 8.28414 12.9059 8.03661 10.6667H10.6797ZM12.0143 9.33335H15.9856C15.8883 7.08431 15.3011 5.09659 14.3855 4.01221C14.258 4.00412 14.1295 4.00002 14 4.00002C13.8705 4.00002 13.7419 4.00412 13.6145 4.01221C12.6989 5.09659 12.1117 7.08431 12.0143 9.33335ZM11.7827 4.42304C11.1326 5.74707 10.7528 7.47199 10.6797 9.33335H8.03661C8.28414 7.09419 9.76385 5.22639 11.7827 4.42304ZM19.9634 9.33335H17.3203C17.2472 7.47199 16.8674 5.74707 16.2173 4.42304C18.2361 5.22639 19.7158 7.09419 19.9634 9.33335Z" fill="white"/>
</g>
</g>
<defs>
<clipPath id="clip0_5138_2167">
<rect width="28" height="20" fill="white"/>
</clipPath>
</defs>
</svg>

<svg xmlns="http://www.w3.org/2000/svg" width="28" height="20" fill="none" viewBox="0 0 28 20"><g clip-path="url(#a)"><rect width="28" height="20" fill="#fff" rx="2"/><mask id="b" width="28" height="20" x="0" y="0" maskUnits="userSpaceOnUse" style="mask-type:luminance"><rect width="28" height="20" fill="#fff" rx="2"/></mask><g mask="url(#b)"><path fill="#19bfbf" d="M0 0h28v20H0z"/><path fill="#fff" fill-rule="evenodd" d="M21.3333 10c0 4.0501-3.2832 7.3334-7.3333 7.3334S6.6667 14.0501 6.6667 10c0-4.05 3.2832-7.3333 7.3333-7.3333S21.3333 5.9499 21.3333 10m-1.3699.6667c-.2476 2.2392-1.7273 4.107-3.7461 4.9103.6501-1.324 1.0299-3.0489 1.103-4.9103zm-3.9778 0c-.0973 2.249-.6845 4.2367-1.6001 5.3211a6.1 6.1 0 0 1-.771 0c-.9156-1.0844-1.5028-3.0721-1.6002-5.3211zm-5.3059 0c.0731 1.8614.4529 3.5863 1.103 4.9103-2.0189-.8033-3.4986-2.6711-3.746-4.9103zm1.3346-1.3334h3.9713c-.0973-2.249-.6845-4.2367-1.6001-5.321a6.1 6.1 0 0 0-.771 0c-.9156 1.0843-1.5028 3.072-1.6002 5.321m-.2316-4.9103c-.6501 1.324-1.0299 3.049-1.103 4.9103h-2.643c.2474-2.2391 1.7272-4.107 3.746-4.9103m8.1807 4.9103h-2.6431c-.0731-1.8613-.4529-3.5862-1.103-4.9103 2.0188.8034 3.4985 2.6712 3.7461 4.9103" clip-rule="evenodd"/></g></g><defs><clipPath id="a"><path fill="#fff" d="M0 0h28v20H0z"/></clipPath></defs></svg>
